X:87
T:Midsummer Carol - Aggett
C:Taken down from Wm. Aggett by F.W.B. 1890.
%%VWML:SBG-1-1-420-0
F:http://www.vwml.org/record/SBG/1/1/420
Z:Original Sibleius Transcription by Martin and Shan Graebe
L:1/8
M:4/4
I:linebreak $
K:G
G2 | B2 B3/2 c/ B2 E3/2 F/ | G>A G3/2 F/ E2 E B | d2 (3Bc d e2 d3/2 d/ | c2 B>A B3 G | 
B2 B3/2 c/ B2 E3/2 F/ |$ G>A G3/2 F/ E2 EB | d3 d (3Bc d e2 d3/2 d/ | ^c2 B3/2 ^A/ B3 B |$ 
d2 (3Bc d e2 dc | dB G A B2 EF | G2 A3/2 A/ B2 B3/2 A/ | B2 E>^D E4 |] 



